X: 130
T: Aylı Gece Serin Gülek
C: İslam Rıza
O: Turkey
F: http://compmusic.upf.edu/node/140
N: segah--turku--azeriyuruksemai--ayli_gece--azeri
N: makam= segah
N: form= turku
N: usul= azeriyuruksemai = 6/8
M: 6/8
L: 1/16
K: C _1/4B _1/4e ^f 
Q: 1/4=312
%%MIDI tuningsystem comma53
c6d4d2  | c4 z2z6  | B6c4d2  | B4 e2d2 c2B2  | \
w:  ARANAĞME  |   |   |   | 
c6d6  | e2d2 c2c2 B2A2  | 
w:   |   | 
B6c4d2  | B4 z2z6  | c6d4d2  | c4 z2z6  | B6c4d2  | \
w:   |   |  ARANAĞME  |   |   | 
B4 e2d2 c2B2  | c6d6  | 
w:   |   | 
e2d2 c2c2 B2A2  | B6c4d2  | B4 z2z6  | c4 {B}e2d2 c4  | \
w:   |   |   |  Ay *  lı  ge ce   | 
c2c2 d2c2 B4  | 
w:  se rin  *  gü lek   | 
c4 c2{c}B2 ^A2B2  | B4 z2z6  | c4 {B}c2{e}d2 e4  | \
w:  göy  *  *  çe  |  men    |  Dört  *  ya *  nı mız   | 
c2c2 d2c2 B4  | {d}c4 c2{c}B3^AB2  | 
w:  ı tır  *  sa çar   |  *  ya *  *  se  | 
B4 z2z6  | c4 e2d2 e4  | c2c2 d2c2 B4  | \
w:  men    |  Ay lı  ge ce   |  se rin  *  gü lek   | 
cdcd3{c}B3^AB2  | B4 z2z6  | 
w:  göy  *  *  *  *  çe  |  men    | 
c4 {B}c2{e}d2 d4  | c2c2 d2c2 B4  | c4 c2{c}B3^AB2  | \
w:  Dört  *  ya *  nı mız   |  ı tır  *  sa çar   |  ya *  *  se  | 
B2G2 A2B2 c2d2  | d2d2 f2e2 d2e2  | 
w:  men    |  An cah  *  me ni   | 
d2{e}d4{e}d2 d2c2  | {f}e4 d2{e}d4c2  | \
w:  bu  *  dert *  le re   |  *  gar *  *  ke  | 
e3d e2d2 {e}c2{d}c2  | d2d2 f2e2 d4  | \
w:  den    |  SAZ  | 
d2c2 e2d2 c4  | 
w:   | 
e4 d2d4c2  | d4 d2c4B2  | d2d2 f2e2 d2e2  | \
w:   |   |  An cah  *  be ni   | 
dede3d2 d2c2  | 
w:  bu  *  dert *  le re   | 
e4 d2d4c2  | d2c2 d2c2 B^AB2  | z4 d2c2 de3  | c12  | \
w:  gar *  ke  |  den    |  Ne  çe men  |  dir   | 
z4 c2B2 cd3  | 
w:  ne  çi çegh  | 
B12  | z4 d2c2 de3  | e2c8-c2  | z4 c2B2 cd3  | B12  | \
w:  dir    |  Ne  çe men  |  dir   |  ne  çi çegh  |  dir    | 
c6d6  | c6B2 B2z2  | 
w:  Sen  sen   |  sen   | 
B6c4d2  | B4 e2d2 d2c2  | c6d6  | d=fe2 (3cBAB6  | \
w:  sen  sen   |  sen  a  gü lüm    |  Sen  sen   |  sen   | 
B6B6  | d2c2 d2c2 B^A.B2  | 
w:  sen  sen   |  sen    | 
c6d4d2  | c4 z2z6  | B6c4d2  | B4 e2d2 c2B2  | \
w:  ARANAĞME  |   |   |   | 
c6d6  | e2d2 c2c2 B2A2  | 
w:   |   | 
B6c4d2  | B4 z2z6  | c6d4d2  | c4 z2z6  | B6c4d2  | \
w:   |   |  ARANAĞME  |   |   | 
B4 e2d2 c2B2  | c6d6  | 
w:   |   | 
e2d2 c2c2 B2A2  | B6c4d2  | B4 z2z6  | c4 {B}e2d2 c4  | \
w:   |   |   |  Ay *  lı  ge ce   | 
c2c2 d2c2 B4  | 
w:  se rin  *  gü lek   | 
c4 c2{c}B2 ^A2B2  | B4 z2z6  | c4 {B}c2{e}d2 e4  | \
w:  göy  *  *  çe  |  men    |  Dört  *  ya *  nı mız   | 
c2c2 d2c2 B4  | {d}c4 c2{c}B3^AB2  | 
w:  ı tır  *  sa çar   |  *  ya *  *  se  | 
B4 z2z6  | c4 e2d2 e4  | c2c2 d2c2 B4  | \
w:  men    |  Ay lı  ge ce   |  se rin  *  gü lek   | 
cdcd3{c}B3^AB2  | B4 z2z6  | 
w:  göy  *  *  *  *  çe  |  men    | 
c4 {B}c2{e}d2 d4  | c2c2 d2c2 B4  | c4 c2{c}B3^AB2  | \
w:  Dört  *  ya *  nı mız   |  ı tır  *  sa çar   |  ya *  *  se  | 
B2G2 A2B2 c2d2  | d2d2 f2e2 d2e2  | 
w:  men    |  An cah  *  me ni   | 
d2{e}d4{e}d2 d2c2  | {f}e4 d2{e}d4c2  | \
w:  bu  *  dert *  le re   |  *  gar *  *  ke  | 
e3d e2d2 {e}c2{d}c2  | d2d2 f2e2 d4  | \
w:  den    |  SAZ  | 
d2c2 e2d2 c4  | 
w:   | 
e4 d2d4c2  | d4 d2c4B2  | d2d2 f2e2 d2e2  | \
w:   |   |  An cah  *  be ni   | 
dede3d2 d2c2  | 
w:  bu  *  dert *  le re   | 
e4 d2d4c2  | d2c2 d2c2 B^AB2  | z4 d2c2 de3  | c12  | \
w:  gar *  ke  |  den    |  Ne  çe men  |  dir   | 
z4 c2B2 cd3  | 
w:  ne  çi çegh  | 
B12  | z4 d2c2 de3  | e2c8-c2  | z4 c2B2 cd3  | B12  | \
w:  dir    |  Ne  çe men  |  dir   |  ne  çi çegh  |  dir    | 
c6d6  | c6B2 B2z2  | 
w:  Sen  sen   |  sen   | 
B6c4d2  | B4 e2d2 d2c2  | c6d6  | d=fe2 (3cBAB6  | \
w:  sen  sen   |  sen  a  gü lüm    |  Sen  sen   |  sen   | 
B6B6  | d2c2 d2c2 B^A.B2  | 
w:  sen  sen   |  sen    | 
|


